Origami/64x64/apps/Encryptr.svg

<svg width="64" height="64" version="1" xmlns="http://www.w3.org/2000/svg">
 <path d="m4.0000004 56.200069v1.999971c0 1.549978 1.2495821 2.79996 2.80076 2.79996h50.39928c1.549977 0 2.79996-1.249982 2.79996-2.79996v-1.999971c0 1.549977-1.249983 2.79996-2.79996 2.79996h-50.39928c-1.5503779 0-2.79996-1.249983-2.79996-2.79996z" style="opacity:.2"/>
 <rect transform="matrix(0,-1,-1,0,0,0)" x="-60" y="-60" width="55.999" height="55.999" rx="2.8" ry="2.8" style="fill:#c41f5b"/>
 <path d="m15.999829 9.000687v31.999542l15.999771 15.999771 15.999771-15.999771h-15.999771l15.999771-15.999771h-15.999771l15.999771-15.999771h-31.999542z" style="opacity:.2"/>
 <path d="m47.999371 40.000315h-15.999771v15.999771z" style="fill:#ffffff"/>
 <path d="m47.999371 24.000543h-15.999771v15.999772z" style="fill:#ffffff"/>
 <path d="m47.999371 8.0007722h-15.999771v15.999771z" style="fill:#ea7aa2"/>
 <path d="m15.999829 40.000315h15.999771v15.999771z" style="fill:#e0e0e0"/>
 <rect x="16" y="8" width="16" height="32" style="fill:#e0e0e0"/>
 <path d="m6.8007812 4c-1.5511778 0-2.8007812 1.2496034-2.8007812 2.8007812v1.0019532c0-1.5511778 1.2496034-2.8007813 2.8007812-2.8007813h50.398438c1.549977 0 2.800781 1.2496035 2.800781 2.8007813v-1.0019532c0-1.5511777-1.250804-2.8007812-2.800781-2.8007812h-50.398438z" style="fill:#ffffff;opacity:.2"/>
</svg>

<svg xmlns="http://www.w3.org/2000/svg" width="64" height="64" version="1">
 <path style="opacity:0.2" d="m 4.0000004,56.200069 0,1.999971 c 0,1.549978 1.2495821,2.79996 2.80076,2.79996 L 57.20004,61 C 58.750017,61 60,59.750018 60,58.20004 l 0,-1.999971 c 0,1.549977 -1.249983,2.79996 -2.79996,2.79996 l -50.3992796,0 c -1.5503779,0 -2.79996,-1.249983 -2.79996,-2.79996 z"/>
 <rect style="fill:#c41f5b" width="55.999" height="55.999" x="-60" y="-60" rx="2.8" ry="2.8" transform="matrix(0,-1,-1,0,0,0)"/>
 <path style="opacity:0.2" d="m 15.999829,9.000687 0,31.999542 L 31.9996,57 47.999371,41.000229 l -15.999771,0 15.999771,-15.999771 -15.999771,0 15.999771,-15.999771 -31.999542,0 z"/>
 <path style="fill:#ffffff" d="m 47.999371,40.000315 -15.999771,0 0,15.999771 z"/>
 <path style="fill:#ffffff" d="m 47.999371,24.000543 -15.999771,0 0,15.999772 z"/>
 <path style="fill:#ea7aa2" d="m 47.999371,8.0007722 -15.999771,0 0,15.9997708 z"/>
 <path style="fill:#e0e0e0" d="m 15.999829,40.000315 15.999771,0 0,15.999771 z"/>
 <rect style="fill:#e0e0e0" width="16" height="32" x="16" y="8"/>
 <path style="opacity:0.2;fill:#ffffff" d="M 6.8007812 4 C 5.2496034 4 4 5.2496034 4 6.8007812 L 4 7.8027344 C 4 6.2515566 5.2496034 5.0019531 6.8007812 5.0019531 L 57.199219 5.0019531 C 58.749196 5.0019531 60 6.2515566 60 7.8027344 L 60 6.8007812 C 60 5.2496035 58.749196 4 57.199219 4 L 6.8007812 4 z"/>
</svg>
